tools/download-figma-icons/icons/outlined-medium/tenant.svg

<svg width="24" height="25" viewBox="0 0 24 25" fill="none" xmlns="http://www.w3.org/2000/svg">
<path fill-rule="evenodd" clip-rule="evenodd" d="M2.99001 9.5475L3.00276 22.5487L21.2375 22.5008L21.1895 9.53625L19.6235 8.1555C19.4615 8.01225 19.3693 7.8075 19.3693 7.5915V3.87075H17.6375V4.73925C17.6375 5.03475 17.4643 5.3025 17.195 5.424C16.925 5.54475 16.6108 5.4975 16.3895 5.3025L12.0605 1.48575L2.99001 9.5475ZM20.8723 7.25173L22.1945 8.41873C22.511 8.69398 22.6925 9.09448 22.6925 9.51448V22.5487C22.6925 23.3505 22.04 24.003 21.2375 24.003H2.95551C2.15301 24.003 1.49976 23.3505 1.49976 22.5487V9.51448C1.49976 9.09373 1.68201 8.69323 2.00076 8.41723L11.1388 0.358484C11.6848 -0.117766 12.5068 -0.117766 13.0498 0.353984L16.136 3.07498C16.1585 2.68123 16.4863 2.36773 16.886 2.36773H20.1208C20.5363 2.36773 20.8723 2.70373 20.8723 3.11923V7.25173ZM9.0884 15.9247L8.61965 17.8312H15.6036L15.1011 15.9225C14.8806 15.0292 14.0729 14.4052 13.1384 14.4052H11.0519C10.1159 14.4052 9.30965 15.03 9.0884 15.9247ZM14.0339 10.965C14.0339 9.89702 13.1646 9.02852 12.0959 9.02852C11.0286 9.02852 10.1594 9.89702 10.1594 10.965C10.1594 12.0338 11.0286 12.9023 12.0959 12.9023C13.1646 12.9023 14.0339 12.0338 14.0339 10.965ZM14.6489 13.2495C15.5804 13.6882 16.3011 14.514 16.5599 15.5618L17.0564 17.568C17.1621 17.9977 17.0661 18.4417 16.7939 18.7882C16.5224 19.1348 16.1144 19.3343 15.6741 19.3343H8.5184C8.07815 19.3343 7.67015 19.1348 7.39865 18.7882C7.12715 18.4417 7.03115 17.9985 7.13615 17.5703L7.6304 15.5655C7.88765 14.5155 8.60915 13.6883 9.5429 13.2488C8.9984 12.6398 8.6564 11.8448 8.6564 10.965C8.6564 9.06825 10.1991 7.5255 12.0959 7.5255C13.9926 7.5255 15.5369 9.06825 15.5369 10.965C15.5369 11.8455 15.1949 12.6405 14.6489 13.2495Z" fill="black"/>
</svg>

<svg width="24" height="25" viewBox="0 0 24 25" fill="none" xmlns="http://www.w3.org/2000/svg"><path fill-rule="evenodd" clip-rule="evenodd" d="m2.99 9.547.013 13.002 18.235-.048-.049-12.965-1.566-1.38a.752.752 0 0 1-.254-.565v-3.72h-1.732v.868a.751.751 0 0 1-1.247.564l-4.33-3.817-9.07 8.062Zm17.882-2.295 1.323 1.167c.316.275.497.675.497 1.095V22.55c0 .802-.652 1.454-1.454 1.454H2.956A1.457 1.457 0 0 1 1.5 22.549V9.514c0-.42.182-.82.5-1.097L11.14.358a1.462 1.462 0 0 1 1.91-.004l3.087 2.721a.752.752 0 0 1 .75-.707h3.235a.75.75 0 0 1 .751.751v4.133ZM9.088 15.925 8.62 17.83h6.984l-.503-1.909a2.008 2.008 0 0 0-1.963-1.517h-2.086a2.01 2.01 0 0 0-1.964 1.52Zm4.946-4.96a1.94 1.94 0 0 0-1.938-1.936 1.939 1.939 0 0 0-1.937 1.936 1.94 1.94 0 0 0 1.937 1.937 1.94 1.94 0 0 0 1.938-1.937Zm.615 2.284a3.478 3.478 0 0 1 1.91 2.313l.497 2.006c.106.43.01.874-.262 1.22-.272.347-.68.546-1.12.546H8.518c-.44 0-.848-.2-1.12-.546a1.415 1.415 0 0 1-.262-1.218l.494-2.005a3.475 3.475 0 0 1 1.913-2.316 3.416 3.416 0 0 1-.887-2.284 3.443 3.443 0 0 1 3.44-3.44 3.444 3.444 0 0 1 3.44 3.44 3.41 3.41 0 0 1-.887 2.284Z" fill="currentColor"/></svg>
